svgs/duotone/hand-point-up.svg

<svg xmlns="http://www.w3.org/2000/svg" viewBox="0 0 448 512"><!-- Font Awesome Pro 6.0.0-alpha2 by @fontawesome - https://fontawesome.com License - https://fontawesome.com/license (Commercial License) --><defs><style>.fa-secondary{opacity:.4}</style></defs><path d="M128 240V32C128 14.328 113.688 0 96 0S64 14.328 64 32V240.807C66.66 240.508 69.26 240 72 240H128ZM323.826 309.031C313.602 315.953 301.275 320 288 320C282.234 320 276.762 318.92 271.447 317.49C268.594 354.646 237.869 384 200 384H128C119.163 384 112 376.837 112 368V368C112 359.163 119.163 352 128 352L197.724 352C213.239 352 240 340.711 240 312C240 289.906 222.094 272 200 272H72C49.909 272 32 289.909 32 312V375.406C32 408.531 48 439.969 74.812 459.531L111.219 485.984C134.489 502.893 162.516 512 191.281 512H280C355.111 512 416 451.111 416 376V343.121C406.553 348.619 395.717 352 384 352C356.066 352 332.559 333.986 323.826 309.031Z" class="fa-secondary"/><path d="M288 160C270.312 160 256 174.328 256 192V256C256 273.672 270.312 288 288 288S320 273.672 320 256V192C320 174.328 305.688 160 288 160ZM192 128C174.312 128 160 142.328 160 160V240H200C208.459 240 216.459 241.729 224 244.41V160C224 142.328 209.688 128 192 128ZM384 192C366.312 192 352 206.328 352 224V288C352 305.672 366.312 320 384 320S416 305.672 416 288V224C416 206.328 401.688 192 384 192Z" class="fa-primary"/></svg>

<svg xmlns="http://www.w3.org/2000/svg" viewBox="0 0 448 512"><!--! Font Awesome Pro 6.3.0 by @fontawesome - https://fontawesome.com License - https://fontawesome.com/license (Commercial License) Copyright 2023 Fonticons, Inc. --><defs><style>.fa-secondary{opacity:.4}</style></defs><path class="fa-primary" d="M288 160c-17.69 0-32 14.33-32 32v64c0 17.67 14.31 32 32 32s32-14.33 32-32V192C320 174.3 305.7 160 288 160zM192 128C174.3 128 160 142.3 160 160v80h40c8.459 0 16.46 1.729 24 4.41V160C224 142.3 209.7 128 192 128zM384 192c-17.69 0-32 14.33-32 32v64c0 17.67 14.31 32 32 32s32-14.33 32-32V224C416 206.3 401.7 192 384 192z"/><path class="fa-secondary" d="M128 240V32c0-17.67-14.31-32-32-32S64 14.33 64 32v208.8C66.66 240.5 69.26 240 72 240H128zM323.8 309C313.6 315.1 301.3 320 288 320c-5.766 0-11.24-1.08-16.55-2.51C268.6 354.6 237.9 384 200 384H127.1C119.2 384 112 376.8 112 368S119.2 352 127.1 352l69.72 .0001c15.52 0 42.28-11.29 42.28-40C239.1 289.9 222.1 272 200 272h-128C49.91 272 32 289.9 32 312v63.41c0 33.13 16 64.56 42.81 84.13l36.41 26.45C134.5 502.9 162.5 512 191.3 512H280c75.11 0 136-60.89 136-136v-32.88C406.6 348.6 395.7 352 384 352C356.1 352 332.6 333.1 323.8 309z"/></svg>
